X:1
T:Title
%%score ( 1 2 ) { 3 | 4 }
L:1/8
Q:1/4=103
M:4/4
K:Eb
V:1 treble nm="Grand Piano, Soprano"
V:2 treble 
V:3 bass nm="Choir Pad, The Cloud and Fire"
V:4 bass 
V:1
 E>[EF] [EG]2 [Ec]>[EB] [Ec]2 | [EG]2 [DB]2 [DA]2 [DF]2 | [DF]>[EG] [FA]2 [Ad]>[A_d] [A=d]2 | %3
w: By~Charles~Austin~Miles * * * * *|||
 [Ac]2 [Gc]2 [GB]2 [EG]2 | E>[EF] [EG]2 [Ec]>[EB] [Ec]2 | [EG]2 [DB]2 [DF]2 [DF]2 | %6
w: |||
 [DB]>[DB] [Fd]2 [FB]2 [Ec]2 | [E=A]2 [DB]6 | E>F [B,EG]2 [EGc]>B [EGc]2 | z2 G6 | %10
w: ||||
 E>F [B,EG]2 [EGc]>B [EGc]2 | z2 A6 | F>G [DFA]2 [DFd]>_d [DF=d]2 | %13
w: |||
 [DF]>G [DFA]2 [DFd]>_d [DF=d]2 | [DF]>G [DFA]2 [FAd]2 [FAc]2 | z2 G6 | E>F [EG]2 [EGc]>B [EGc]2 | %17
w: ||||
 z2 G6 | [B,EG]>G [EGe]2 [FG=Bd]2 [EGc]2 | z2 c6 | [FABd]>d [EGBe]2 [EGB]2 [EAd]2 | %21
w: ||||
 [EAc]>c [EGB]2 [B,EG]2 [CF]2 | [CE_Gc]2 [B,E=GB]2 [B,EG]>E [B,DG]2 | [B,DF]2 [G,B,E]6- | %24
w: |||
 [G,B,E]2 z2 z4 |] %25
w: |
V:2
 x8 | x8 | x8 | x8 | x8 | x8 | x8 | x8 | x8 | E2 [B,E]2 [B,E]2 [B,E]2 | x8 | %11
 [EG]2 [DF]2 [DF]2 [DF]2 | x8 | x8 | x8 | [DFA]2 [B,E]2 [B,E]2 [B,E]2 | x8 | %17
 [B,E]2 [B,E]2 [B,E]2 [B,E]2 | x8 | [FG=B]2 [EG]2 [EG]2 [EG]2 | x8 | x8 | x8 | x8 | x8 |] %25
V:3
 G,>A, B,2 G,>G, G,2 | G,2 F,2 B,2 B,2 | B,>B, B,2 B,>B, B,2 | B,2 B,2 B,2 B,2 | %4
 G,>A, B,2 G,>G, G,2 | G,2 F,2 B,2 B,2 | F,>F, B,2 D2 =A,2 | C2 B,2 A,2 G,2 | F,2 E,2 B,,2 E,2 | %9
 B,,2 E,2 B,,2 E,2 | B,,2 E,2 B,,2 E,2 | B,,2 F,2 B,,2 F,2 | B,,2 F,2 B,,2 F,2 | %13
 B,,2 F,2 B,,2 F,2 | B,,2 F,2 B,,2 F,2 | B,,2 E,2 B,,2 G,,2 | z2 E,2 B,,2 E,2 | B,,2 E,2 B,,2 E,2 | %18
 E,2 D,2 D,2 E,2 | G,2 G,2 G,2 G,2 | B,2 E,2 E,2 A,2 | A,2 B,2 B,2 A,2 | _G,2 =G,2 G,2 A,2 | %23
 A,2 E,2 B,,2 E,,2- | E,,2 z2 z4 |] %25
V:4
 E,>E, E,2 E,>E, E,2 | E,2 B,,2 B,,2 B,,2 | B,,>B,, B,,2 B,,>B,, B,,2 | B,,2 E,2 E,2 E,2 | %4
 E,>E, E,2 E,>E, E,2 | E,2 B,,2 B,,2 B,,2 | B,,>B,, F,2 F,2 F,2 | F,2 B,,2 A,,2 G,,2 | %8
 F,,2 E,,2 B,,,2 E,,2 | B,,,2 E,,2 B,,,2 E,,2 | B,,,2 E,,2 B,,,2 E,,2 | B,,,2 F,,2 B,,,2 F,,2 | %12
 B,,,2 F,,2 B,,,2 F,,2 | B,,,2 F,,2 B,,,2 F,,2 | B,,,2 F,,2 B,,,2 F,,2 | B,,,2 E,,2 B,,,2 G,,,2 | %16
 z2 E,,2 C,,2 E,,2 | B,,,2 E,,2 B,,,2 E,,2 | E,,2 C,,2 D,,2 E,,2 | G,,2 C,2 C,2 C,2 | %20
 B,,2 E,,2 E,,2 A,,2 | A,,2 B,,2 B,,2 A,,2 | =A,,2 B,,2 B,,2 B,,2 | B,,2 E,,2 B,,,2 E,,,2- | %24
 E,,,2 z2 z4 |] %25

